Suru++-Ubuntu/apps/symbolic/wire-desktop-symbolic.svg

<svg width="16" height="16" version="1.1" xmlns="http://www.w3.org/2000/svg">
 <path d="m0.50000084 1.8144535v8.2714845s-0.004269 0.986467 0.59570316 1.966797c0.5999717 0.98033 1.8547775 1.947265 4.0917969 1.947265 1.2389388 0 2.1206632-0.318777 2.8125-0.75 0.6917193 0.430813 1.574286 0.75 2.8124991 0.75 2.23702 0 3.491825-0.966935 4.091797-1.947265s0.595703-1.966797 0.595703-1.966797v-8.2714845h-0.9375v8.2714845s-0.0043 0.735532-0.458984 1.478516c-0.454713 0.742983-1.309296 1.498046-3.291016 1.498046-0.9506934 0-1.6165828-0.188034-2.1289054-0.451171 0.1842966-0.19413 0.4709416-0.354739 0.5957031-0.558594 0.5999718-0.98033 0.5957032-1.966797 0.5957032-1.966797v-6.2050782s0.00728-0.4831174-0.2148438-0.9882813c-0.2221232-0.5051639-0.7793775-1.078125-1.6601562-1.078125-0.8807788 0-1.4380331 0.5729611-1.6601563 1.078125s-0.2148437 0.9882813-0.2148437 0.9882813v6.2050782s-0.00427 0.986467 0.5957031 1.966797c0.1248523 0.204003 0.4112271 0.364336 0.5957031 0.558594-0.5123225 0.263137-1.1782121 0.451171-2.1289062 0.451171-1.9817195 0-2.8363027-0.755063-3.2910157-1.498046-0.4547129-0.742984-0.4589843-1.478516-0.4589843-1.478516v-8.2714845zm7.5000001 0.9375c0.5254359 0 0.6713508 0.2251739 0.8007812 0.5195313 0.1294305 0.2943573 0.1367188 0.609375 0.1367188 0.609375v6.2050782s-0.00427 0.735532-0.4589844 1.478516c-0.1015161 0.165873-0.3290018 0.300349-0.4785156 0.458984-0.1495138-0.158635-0.3769995-0.293111-0.4785156-0.458984-0.4547131-0.742984-0.4589844-1.478516-0.4589844-1.478516v-6.2050782s0.00729-0.3150177 0.1367187-0.609375c0.1294305-0.2943574 0.2753453-0.5195313 0.8007813-0.5195313z" style="fill:#808080"/>
</svg>

<svg xmlns="http://www.w3.org/2000/svg" width="16" height="16" version="1.1">
 <path style="fill:#808080" d="m 0.50000084,1.8144535 v 8.2714845 c 0,0 -0.004269,0.986467 0.59570316,1.966797 C 1.6956757,13.033065 2.9504815,14 5.1875009,14 6.4264397,14 7.3081641,13.681223 8.0000009,13.25 8.6917202,13.680813 9.5742869,14 10.8125,14 13.04952,14 14.304325,13.033065 14.904297,12.052735 15.504269,11.072405 15.5,10.085938 15.5,10.085938 V 1.8144535 h -0.9375 v 8.2714845 c 0,0 -0.0043,0.735532 -0.458984,1.478516 -0.454713,0.742983 -1.309296,1.498046 -3.291016,1.498046 -0.9506934,0 -1.6165828,-0.188034 -2.1289054,-0.451171 0.1842966,-0.19413 0.4709416,-0.354739 0.5957031,-0.558594 0.5999718,-0.98033 0.5957032,-1.966797 0.5957032,-1.966797 V 3.8808598 c 0,0 0.00728,-0.4831174 -0.2148438,-0.9882813 -0.2221232,-0.5051639 -0.7793775,-1.078125 -1.6601562,-1.078125 -0.8807788,0 -1.4380331,0.5729611 -1.6601563,1.078125 C 6.1177214,3.3977424 6.1250009,3.8808598 6.1250009,3.8808598 v 6.2050782 c 0,0 -0.00427,0.986467 0.5957031,1.966797 0.1248523,0.204003 0.4112271,0.364336 0.5957031,0.558594 C 6.8040846,12.874466 6.138195,13.0625 5.1875009,13.0625 3.2057814,13.0625 2.3511982,12.307437 1.8964852,11.564454 1.4417723,10.82147 1.4375009,10.085938 1.4375009,10.085938 V 1.8144535 Z m 7.50000006,0.9375 c 0.5254359,0 0.6713508,0.2251739 0.8007812,0.5195313 0.1294305,0.2943573 0.1367188,0.609375 0.1367188,0.609375 v 6.2050782 c 0,0 -0.00427,0.735532 -0.4589844,1.478516 C 8.3770004,11.730327 8.1495147,11.864803 8.0000009,12.023438 7.8504871,11.864803 7.6230014,11.730327 7.5214853,11.564454 7.0667722,10.82147 7.0625009,10.085938 7.0625009,10.085938 V 3.8808598 c 0,0 0.00729,-0.3150177 0.1367187,-0.609375 C 7.3286501,2.9771274 7.4745649,2.7519535 8.0000009,2.7519535 Z"/>
</svg>
